packages/astro-components-stencil/src/icons/border-right.svg

<svg xmlns="http://www.w3.org/2000/svg" viewBox="0 0 24 24"><g xmlns="http://www.w3.org/2000/svg" id="border-right" fill-rule="nonzero">
            <path d="M7 21h2v-2H7v2zM3 5h2V3H3v2zm4 0h2V3H7v2zm0 8h2v-2H7v2zm-4 8h2v-2H3v2zm8 0h2v-2h-2v2zm-8-8h2v-2H3v2zm0 4h2v-2H3v2zm0-8h2V7H3v2zm8 8h2v-2h-2v2zm4-4h2v-2h-2v2zm4-9v16c0 .55.45 1 1 1s1-.45 1-1V4c0-.55-.45-1-1-1s-1 .45-1 1zm-4 17h2v-2h-2v2zm0-16h2V3h-2v2zm-4 8h2v-2h-2v2zm0-8h2V3h-2v2zm0 4h2V7h-2v2z"/>
        </g></svg>

<svg width="24" height="24" viewBox="0 0 24 24" fill="none" xmlns="http://www.w3.org/2000/svg">
<path fill-rule="evenodd" clip-rule="evenodd" d="M3 5H5V3H3V5ZM7 21H9V19H7V21ZM9 5H7V3H9V5ZM7 13H9V11H7V13ZM5 21H3V19H5V21ZM11 21H13V19H11V21ZM5 13H3V11H5V13ZM3 17H5V15H3V17ZM5 9H3V7H5V9ZM11 17H13V15H11V17ZM17 13H15V11H17V13ZM19 4V20C19 20.55 19.45 21 20 21C20.55 21 21 20.55 21 20V4C21 3.45 20.55 3 20 3C19.45 3 19 3.45 19 4ZM17 21H15V19H17V21ZM15 5H17V3H15V5ZM13 13H11V11H13V13ZM11 5H13V3H11V5ZM13 9H11V7H13V9Z" fill="black"/>
</svg>
